fs/text_align_justify_rotate_90_24_regular.svg

<svg viewBox="0 0 24 24" fill="none" xmlns="http://www.w3.org/2000/svg" height="1em" width="1em">
  <path d="M18.25 2C18.6642 2 19 2.33579 19 2.75V21.25C19 21.6642 18.6642 22 18.25 22C17.8358 22 17.5 21.6642 17.5 21.25V2.75C17.5 2.33579 17.8358 2 18.25 2ZM5.25 2C5.66421 2 6 2.33579 6 2.75V21.25C6 21.6642 5.66421 22 5.25 22C4.83579 22 4.5 21.6642 4.5 21.25V2.75C4.5 2.33579 4.83579 2 5.25 2ZM12.5 2.75C12.5 2.33579 12.1642 2 11.75 2C11.3358 2 11 2.33579 11 2.75V21.25C11 21.6642 11.3358 22 11.75 22C12.1642 22 12.5 21.6642 12.5 21.25V2.75Z" fill="#212121"/>
</svg>

<svg viewBox="0 0 24 24" fill="none" xmlns="http://www.w3.org/2000/svg" height="1em" width="1em">
  <path d="M18.25 2a.75.75 0 0 1 .75.75v18.5a.75.75 0 0 1-1.5 0V2.75a.75.75 0 0 1 .75-.75Zm-13 0a.75.75 0 0 1 .75.75v18.5a.75.75 0 0 1-1.5 0V2.75A.75.75 0 0 1 5.25 2Zm7.25.75a.75.75 0 0 0-1.5 0v18.5a.75.75 0 0 0 1.5 0V2.75Z" fill="#212121"/>
</svg>
